src/main/resources/icons/AllIcons/general/inline_edit_hovered.svg

<!-- Copyright 2000-2021 JetBrains s.r.o. Use of this source code is governed by the Apache 2.0 license that can be found in the LICENSE file. -->
<svg xmlns="http://www.w3.org/2000/svg" width="16" height="16" viewBox="0 0 16 16">
  <path fill="#7F8B91" fill-opacity=".9" fill-rule="evenodd" d="M10.9230769,7.41605392 L8.61538458,5.10836161 L3,10.6923077 L3,13 L5.30769231,13 L10.9230769,7.41605392 Z M12.8461538,5.49297699 C13.0931763,5.24593075 13.0931763,4.58617709 12.8461538,4.33913084 L11.6923077,3.18528469 C11.4452852,2.93823844 10.785484,2.93823844 10.5384615,3.18528469 L9.38461535,4.33913084 L11.6923077,6.64682315 L12.8461538,5.49297699 Z"/>
</svg>

<svg xmlns="http://www.w3.org/2000/svg" width="16" height="16" viewBox="0 0 16 16"><rect id="frame" width="16" height="16" fill="none"/><path fill="#7F8B91" fill-opacity=".9" fill-rule="evenodd" d="M10.923 7.416L8.615 5.108 3 10.692V13h2.308l5.615-5.584zm1.923-1.923c.247-.247.247-.907 0-1.154l-1.154-1.154c-.247-.247-.907-.247-1.154 0L9.385 4.34l2.307 2.308 1.154-1.154z"/></svg>
